ix/scan_broken.svg

<svg viewBox="0 0 24 24" fill="none" xmlns="http://www.w3.org/2000/svg" height="1em" width="1em">
  <path d="M2 9V6.5C2 4.01 4.01 2 6.5 2H9m6 0h2.5C19.99 2 22 4.01 22 6.5V9m0 7v1.5c0 2.49-2.01 4.5-4.5 4.5H16m-7 0H6.5C4.01 22 2 19.99 2 17.5V15m15-5.5v5c0 2-1 3-3 3h-4c-2 0-3-1-3-3v-5c0-2 1-3 3-3h4m5 5.5H5" stroke="#292D32" stroke-width="1.5" stroke-linecap="round" stroke-linejoin="round"/>
</svg>

<svg viewBox="0 0 24 24" fill="none" xmlns="http://www.w3.org/2000/svg" height="1em" width="1em">
  <path d="M2 9V6.5C2 4.01 4.01 2 6.5 2H9" stroke="#292D32" stroke-width="1.5" stroke-linecap="round" stroke-linejoin="round"/>
  <path d="M15 2H17.5C19.99 2 22 4.01 22 6.5V9" stroke="#292D32" stroke-width="1.5" stroke-linecap="round" stroke-linejoin="round"/>
  <path d="M22 16V17.5C22 19.99 19.99 22 17.5 22H16" stroke="#292D32" stroke-width="1.5" stroke-linecap="round" stroke-linejoin="round"/>
  <path d="M9 22H6.5C4.01 22 2 19.99 2 17.5V15" stroke="#292D32" stroke-width="1.5" stroke-linecap="round" stroke-linejoin="round"/>
  <path d="M17 9.5V14.5C17 16.5 16 17.5 14 17.5H10C8 17.5 7 16.5 7 14.5V9.5C7 7.5 8 6.5 10 6.5H14" stroke="#292D32" stroke-width="1.5" stroke-linecap="round" stroke-linejoin="round"/>
  <path d="M19 12H5" stroke="#292D32" stroke-width="1.5" stroke-linecap="round" stroke-linejoin="round"/>
</svg>
